X:1
T:Safe Home, HM
T:Safe Home, HM
T:Alfred Boynton, 1874
T:Public Domain Courtesy of the Cyber Hymnal™
C:Alfred Boynton, 1874
Z:Public Domain
Z:Courtesy of the Cyber Hymnal™
%%score ( 1 2 ) ( 3 4 )
L:1/8
Q:1/4=98
M:6/8
K:G
V:1 treble 
V:2 treble 
V:3 bass 
V:4 bass 
V:1
 [Gd]3 [GB]2 [DG] | [B,D]2 [DB] [DG]2 [GB] | [FA]2 [DF] [B,G]2 D | [DGB]3- [DGB]2 z | %4
 [Gd]3 [GB]2 [DG] | (AG)[CE] !fermata![EG]2 [CE] | [B,D]2 [GB] [FA]2 [DB] | [DG]3- [DG]2 [Gd] | %8
 [Gd]2 [GB] [GB]2 [Gd] | [Fd]2 [FA] !fermata![FA]2 [Gd] | [Ge]2 [Gd] [Ac]2 [FA] | %11
 [DG]2 [GB] !fermata![Fd]2 [Fe] | [Gd]2 [GB] [DG]2 [^DF] | E2 [EG] !fermata![Ec]2 [Ge] | %14
 [Gd]2 [GB] ([GB][FA])G | [GB]2 [FA] [DG]3 |] %16
V:2
 x6 | x6 | x5 D | x6 | x6 | D2 x4 | x6 | x6 | x6 | x6 | x6 | x6 | x6 | E2 x4 | x5 G | x6 |] %16
V:3
 [G,B,]3 [G,D]2 [G,,B,] | [D,G,]2 [D,D] [G,,B,]2 [G,D] | [D,C]2 [D,A,] [E,G,]2 [F,A,] | %3
 G,3- G,2 z | [G,B,]3 [G,D]2 [B,,D] | [C,C]2 [C,G,C] !fermata![C,C]2 [C,G,] | %6
 (G,B,)[D,D] [D,C]2 [D,D] | [G,,B,]3- [G,,B,]2 [G,B,] | [G,B,]2 [G,D] [G,C]2 [G,B,] | %9
 [D,A,]2 [D,D] !fermata![D,D]2 [G,B,] | [G,C]2 [G,B,] [F,D]2 [D,C] | %11
 [G,B,]2 [G,D] !fermata![D,D]2 [D,C] | [G,B,]2 [G,D] [G,B,]2 [B,,A,] | %13
 [C,G,]2 [C,G,] !fermata![C,G,]2 [C,C] | [G,B,]2 [G,D] (DC)[E,B,] | [D,D]2 [D,C] [G,,B,]3 |] %16
V:4
 x6 | x6 | x6 | G,3- G,2 x | x6 | x6 | D,2 x4 | x6 | x6 | x6 | x6 | x6 | x6 | x6 | x3 D,2 x | x6 |] %16

